outputs/icons/file/cloud_done_sharp.svg

<svg xmlns="http://www.w3.org/2000/svg" width="1200" height="1200" fill="none"><g clip-path="url(#a)"><path fill="#000" d="M967.5 502C933.5 329.5 782 200 600 200c-144.5 0-270 82-332.5 202C117 418 0 545.5 0 700c0 165.5 134.5 300 300 300h650c138 0 250-112 250-250 0-132-102.5-239-232.5-248M500 850 325 675l70.5-70.5L500 709l259-259 70.5 70.5z"/></g><defs><clipPath id="a"><path fill="#fff" d="M0 0h1200v1200H0z"/></clipPath></defs></svg>

<svg width="1200" height="1200" viewBox="0 0 1200 1200" fill="none" xmlns="http://www.w3.org/2000/svg"><g clip-path="url(#clip0_124_962)"><path d="M967.5 502C933.5 329.5 782 200 600 200C455.5 200 330 282 267.5 402C117 418 0 545.5 0 700C0 865.5 134.5 1000 300 1000H950C1088 1000 1200 888 1200 750C1200 618 1097.5 511 967.5 502ZM500 850L325 675L395.5 604.5L500 709L759 450L829.5 520.5L500 850Z" fill="#1D1E23"/></g><defs><clipPath id="clip0_124_962"><path width="24" fill="white" d="M0 0H1200V1200H0V0z"/></clipPath></defs></svg>
